optimized/outline/filter.svg

<svg xmlns="http://www.w3.org/2000/svg" fill="none" viewBox="0 0 24 24" stroke-width="2" stroke="currentColor" aria-hidden="true">
  <path stroke-linecap="round" stroke-linejoin="round" d="M3 4C3 3.44772 3.44772 3 4 3H20C20.5523 3 21 3.44772 21 4V6.58579C21 6.851 20.8946 7.10536 20.7071 7.29289L14.2929 13.7071C14.1054 13.8946 14 14.149 14 14.4142V17L10 21V14.4142C10 14.149 9.89464 13.8946 9.70711 13.7071L3.29289 7.29289C3.10536 7.10536 3 6.851 3 6.58579V4Z"/>
</svg>

<svg xmlns="http://www.w3.org/2000/svg" fill="none" viewBox="0 0 24 24" stroke-width="2" stroke="currentColor" aria-hidden="true">
  <path stroke-linecap="round" stroke-linejoin="round" d="M3 4a1 1 0 011-1h16a1 1 0 011 1v2.586a1 1 0 01-.293.707l-6.414 6.414a1 1 0 00-.293.707V17l-4 4v-6.586a1 1 0 00-.293-.707L3.293 7.293A1 1 0 013 6.586V4z"/>
</svg>
